packages/dnb-eufemia/assets/icons/filter.svg

<svg width="16" height="16" viewBox="0 0 16 16" fill="none" xmlns="http://www.w3.org/2000/svg">
<path d="M6.33341 13.3333H14.3334M6.33341 13.3333C6.33341 14.2538 5.58722 15 4.66675 15C3.74627 15 3.00008 14.2538 3.00008 13.3333M6.33341 13.3333C6.33341 12.4129 5.58722 11.6667 4.66675 11.6667C3.74627 11.6667 3.00008 12.4129 3.00008 13.3333M3.00008 13.3333H1.66675M13.0001 8H14.3334M13.0001 8C13.0001 8.92047 12.2539 9.66667 11.3334 9.66667C10.4129 9.66667 9.66675 8.92047 9.66675 8M13.0001 8C13.0001 7.07953 12.2539 6.33333 11.3334 6.33333C10.4129 6.33333 9.66675 7.07953 9.66675 8M9.66675 8H1.66675M8.33341 2.66667H14.3334M8.33341 2.66667C8.33341 3.58714 7.58722 4.33333 6.66675 4.33333C5.74627 4.33333 5.00008 3.58714 5.00008 2.66667M8.33341 2.66667C8.33341 1.74619 7.58722 1 6.66675 1C5.74627 1 5.00008 1.74619 5.00008 2.66667M5.00008 2.66667H1.66675" stroke="black" stroke-width="1.5" stroke-linecap="round"/>
</svg>

<svg width="16" height="16" viewBox="0 0 16 16" fill="none" xmlns="http://www.w3.org/2000/svg"><path d="M6.333 13.333h8m-8 0a1.667 1.667 0 1 1-3.333 0m3.333 0a1.667 1.667 0 0 0-3.333 0m0 0H1.667M13 8h1.333M13 8a1.667 1.667 0 0 1-3.333 0M13 8a1.667 1.667 0 0 0-3.333 0m0 0h-8m6.666-5.333h6m-6 0a1.667 1.667 0 0 1-3.333 0m3.333 0a1.667 1.667 0 1 0-3.333 0m0 0H1.667" stroke="#000" stroke-width="1.5" stroke-linecap="round"/></svg>
